resources/assets/icons/brands/solid/telegram.svg

<svg width="16" height="16" viewBox="0 0 16 16" fill="none" xmlns="http://www.w3.org/2000/svg">
<path fill-rule="evenodd" clip-rule="evenodd" d="M15.9891 1.32365L13.2738 14.3845C13.2098 14.6928 12.8482 14.8326 12.5931 14.6472L8.88646 11.9561C8.66145 11.7927 8.3546 11.8014 8.13919 11.977L6.08409 13.6522C5.84561 13.8473 5.4862 13.7386 5.39487 13.4448L3.96789 8.8556L0.28115 7.47966C-0.0933495 7.33936 -0.0965494 6.81066 0.276884 6.66681L15.4073 0.82989C15.7281 0.705852 16.059 0.986841 15.9891 1.32365ZM12.3702 3.68549L5.16498 8.12315C4.88882 8.29357 4.75884 8.62708 4.84793 8.9393L5.62695 11.6766C5.68236 11.8705 5.96376 11.8507 5.99073 11.6503L6.19319 10.1493C6.23144 9.86664 6.3662 9.60612 6.57526 9.41163L12.5216 3.88419C12.6329 3.78108 12.4996 3.606 12.3702 3.68549Z" fill="currentColor"/>
</svg>

<svg width="16" height="16" fill="none" xmlns="http://www.w3.org/2000/svg"><path fill-rule="evenodd" clip-rule="evenodd" d="m15.99 1.324-2.716 13.06a.434.434 0 0 1-.68.263l-3.708-2.69a.613.613 0 0 0-.747.02l-2.055 1.675a.434.434 0 0 1-.69-.207l-1.426-4.59L.28 7.48a.435.435 0 0 1-.004-.813L15.407.83a.435.435 0 0 1 .582.494Zm-3.62 2.361L5.165 8.123a.726.726 0 0 0-.317.816l.779 2.738c.055.194.337.174.364-.027l.202-1.5c.038-.283.173-.544.382-.738l5.947-5.528c.11-.103-.022-.278-.152-.199Z" fill="currentColor"/></svg>
